tools/download-figma-icons/icons/outlined-medium/wind-mill.svg

<svg width="24" height="25" viewBox="0 0 24 25" fill="none" xmlns="http://www.w3.org/2000/svg">
<path d="M22.755 15.1975L19.8375 12.5575C19.71 12.445 19.5525 12.3775 19.38 12.3625L18.255 12.295V7.50246C18.255 7.11996 17.9625 6.79746 17.58 6.75996C17.205 6.72246 16.845 6.97746 16.77 7.35246L15.9525 11.2075C15.915 11.3725 15.9375 11.545 16.0125 11.695L16.5225 12.715L12.3825 15.115C12.0525 15.31 11.9175 15.715 12.075 16.0675C12.195 16.345 12.4725 16.51 12.7575 16.51C12.8325 16.51 12.915 16.495 12.99 16.4725L16.6275 15.295L16.35 22.51H8.96999L8.30249 9.12996L13.0275 11.9125C13.1475 11.98 13.275 12.0175 13.41 12.0175C13.6425 12.0175 13.8675 11.9125 14.01 11.7175C14.235 11.41 14.1975 10.975 13.9125 10.72L10.26 7.35996C10.1325 7.23996 9.96749 7.17246 9.79499 7.16496L8.20499 7.06746V0.752457C8.20499 0.369957 7.91249 0.0474567 7.52999 0.00245666C7.13999 -0.0275433 6.79499 0.219957 6.71999 0.594957L5.69249 5.49996C5.65499 5.66496 5.67749 5.83746 5.75249 5.98746L6.47249 7.45746L1.11749 10.6075C0.787491 10.8025 0.652491 11.215 0.817491 11.56C0.944991 11.8375 1.21499 12.0025 1.49999 12.0025C1.57499 12.0025 1.65749 11.9875 1.73249 11.965L6.41249 10.42C6.49499 10.39 6.56999 10.3525 6.64499 10.2925L6.03749 22.5025H2.99999C2.58749 22.5025 2.24999 22.84 2.24999 23.2525C2.24999 23.665 2.58749 24.0025 2.99999 24.0025H21C21.4125 24.0025 21.75 23.665 21.75 23.2525C21.75 22.84 21.4125 22.5025 21 22.5025H18.5325L18.2175 14.2825L21.8775 16.3975C21.9975 16.465 22.125 16.495 22.2525 16.495C22.485 16.495 22.71 16.39 22.86 16.1875C23.085 15.88 23.04 15.445 22.755 15.19V15.1975Z" fill="black"/>
</svg>

<svg xmlns="http://www.w3.org/2000/svg" width="24" height="25" fill="none" viewBox="0 0 24 25"><path fill="currentColor" d="m22.755 15.198-2.918-2.64a.8.8 0 0 0-.457-.195l-1.125-.068V7.502a.75.75 0 0 0-.675-.742.754.754 0 0 0-.81.592l-.817 3.855a.73.73 0 0 0 .06.488l.51 1.02-4.14 2.4a.748.748 0 0 0 .607 1.358l3.638-1.178-.278 7.215H8.97L8.302 9.13l4.726 2.782q.18.104.382.105a.74.74 0 0 0 .6-.3.75.75 0 0 0-.098-.997L10.26 7.36a.72.72 0 0 0-.465-.195l-1.59-.098V.752a.76.76 0 0 0-.675-.75.75.75 0 0 0-.81.593L5.692 5.5a.73.73 0 0 0 .06.487l.72 1.47-5.355 3.15a.74.74 0 0 0-.3.953.75.75 0 0 0 .915.405l4.68-1.545a.8.8 0 0 0 .233-.127l-.608 12.21H3a.75.75 0 0 0-.75.75c0 .412.337.75.75.75h18c.413 0 .75-.338.75-.75a.75.75 0 0 0-.75-.75h-2.468l-.314-8.22 3.66 2.115a.757.757 0 0 0 .982-.21.75.75 0 0 0-.105-.998z"/></svg>
